public/formular-icons/numbers/4.svg

<svg style="vertical-align:0" xmlns="http://www.w3.org/2000/svg" width="1.131ex" height="1.532ex" viewBox="0 -677 500 677" xmlns:xlink="http://www.w3.org/1999/xlink"><defs><path id="a" d="M462 0q-18 3-129 3-116 0-134-3h-9v46h58q7 0 17 2t14 5 7 8q1 2 1 54v50H28v46l151 231q153 232 155 233 2 2 21 2h18l6-6V211h92v-46h-92V66q0-7 6-12 8-7 57-8h29V0h-9ZM293 211v334L74 212l109-1h110Z"/></defs><g stroke="currentColor" fill="currentColor" stroke-width="0"><use data-c="34" xlink:href="#a" transform="scale(1 -1)"/></g></svg>

<svg style="vertical-align: 0" xmlns="http://www.w3.org/2000/svg" width="1.131ex" height="1.532ex" role="img" focusable="false" viewBox="0 -677 500 677" xmlns:xlink="http://www.w3.org/1999/xlink"><defs><path id="MJX-26-TEX-N-34" d="M462 0Q444 3 333 3Q217 3 199 0H190V46H221Q241 46 248 46T265 48T279 53T286 61Q287 63 287 115V165H28V211L179 442Q332 674 334 675Q336 677 355 677H373L379 671V211H471V165H379V114Q379 73 379 66T385 54Q393 47 442 46H471V0H462ZM293 211V545L74 212L183 211H293Z"></path></defs><g stroke="currentColor" fill="currentColor" stroke-width="0" transform="scale(1,-1)"><g data-mml-node="math"><g data-mml-node="mn"><use data-c="34" xlink:href="#MJX-26-TEX-N-34"></use></g></g></g></svg>
